docs/assets/icons/printer-3d.svg

<?xml version="1.0" encoding="UTF-8" standalone="no"?>
<svg
   id="mdi-printer-3d"
   viewBox="0 0 24 24"
   version="1.1"
   sodipodi:docname="printer-3d.svg"
   inkscape:version="1.4.3 (0d15f75042, 2025-12-25)"
   xmlns:inkscape="http://www.inkscape.org/namespaces/inkscape"
   xmlns:sodipodi="http://sodipodi.sourceforge.net/DTD/sodipodi-0.dtd"
   xmlns="http://www.w3.org/2000/svg"
   xmlns:svg="http://www.w3.org/2000/svg">
  <defs
     id="defs1">
    <filter
       style="color-interpolation-filters:sRGB;"
       inkscape:label="Drop Shadow"
       id="filter18"
       x="-0.060000002"
       y="-0.057600002"
       width="1.1616667"
       height="1.1552">
      <feFlood
         result="flood"
         in="SourceGraphic"
         flood-opacity="0.498039"
         flood-color="rgb(0,0,0)"
         id="feFlood17" />
      <feGaussianBlur
         result="blur"
         in="SourceGraphic"
         stdDeviation="0.300000"
         id="feGaussianBlur17" />
      <feOffset
         result="offset"
         in="blur"
         dx="0.500000"
         dy="0.500000"
         id="feOffset17" />
      <feComposite
         result="comp1"
         operator="in"
         in="flood"
         in2="offset"
         id="feComposite17" />
      <feComposite
         result="comp2"
         operator="over"
         in="SourceGraphic"
         in2="comp1"
         id="feComposite18" />
    </filter>
    <filter
       style="color-interpolation-filters:sRGB;"
       inkscape:label="Drop Shadow"
       id="filter20"
       x="-0.036000001"
       y="-0.080000003"
       width="1.097"
       height="1.2155556">
      <feFlood
         result="flood"
         in="SourceGraphic"
         flood-opacity="0.498039"
         flood-color="rgb(0,0,0)"
         id="feFlood18" />
      <feGaussianBlur
         result="blur"
         in="SourceGraphic"
         stdDeviation="0.300000"
         id="feGaussianBlur18" />
      <feOffset
         result="offset"
         in="blur"
         dx="0.500000"
         dy="0.500000"
         id="feOffset18" />
      <feComposite
         result="comp1"
         operator="in"
         in="flood"
         in2="offset"
         id="feComposite19" />
      <feComposite
         result="comp2"
         operator="over"
         in="SourceGraphic"
         in2="comp1"
         id="feComposite20" />
    </filter>
  </defs>
  <sodipodi:namedview
     id="namedview1"
     pagecolor="#505050"
     bordercolor="#ffffff"
     borderopacity="1"
     inkscape:showpageshadow="0"
     inkscape:pageopacity="0"
     inkscape:pagecheckerboard="1"
     inkscape:deskcolor="#505050"
     inkscape:zoom="34.353604"
     inkscape:cx="14.889267"
     inkscape:cy="8.2960728"
     inkscape:window-width="2560"
     inkscape:window-height="1368"
     inkscape:window-x="0"
     inkscape:window-y="0"
     inkscape:window-maximized="1"
     inkscape:current-layer="mdi-printer-3d" />
  <g
     id="g1"
     transform="translate(-0.02910914,-0.02910914)">
    <path
       d="m 20.333194,4.9113224 c 0.655174,0 1.186297,-0.5311237 1.186297,-1.1862978 0,-0.6551741 -0.531123,-1.1862977 -1.186297,-1.1862977 -0.655175,0 -1.186299,0.5311236 -1.186299,1.1862977 0,0.6551741 0.531124,1.1862978 1.186299,1.1862978 m 0,-4.74519111 c 1.965521,0 3.558893,1.59337081 3.558893,3.55889331 V 10.842811 H 19.146895 V 6.0976202 H 4.9113224 V 10.842811 H 0.16613129 V 3.7250246 c 0,-1.9655225 1.59337081,-3.55889331 3.55889331,-3.55889331 H 20.333194"
       id="path1"
       sodipodi:nodetypes="csssccsccccccssc"
       style="display:inline;fill:#4cae4f;fill-opacity:1;stroke-width:1.18629" />
    <path
       d="m 19.146895,19.443471 c 0,0.450792 -0.249121,0.842271 -0.628737,1.043941 l -5.812859,3.191141 c -0.201671,0.142355 -0.427068,0.213534 -0.67619,0.213534 -0.249123,0 -0.486382,-0.07118 -0.67619,-0.213534 L 5.5400601,20.487412 C 5.160445,20.285742 4.9113224,19.894263 4.9113224,19.443471 v -6.228064 c 0,-0.450793 0.2491226,-0.842271 0.6287377,-1.043942 L 11.352919,9.2768982 c 0.189808,-0.1423557 0.427067,-0.2135336 0.67619,-0.2135336 0.249122,0 0.474519,0.071178 0.67619,0.2135336 l 5.812859,2.8945668 c 0.379616,0.201671 0.628737,0.593149 0.628737,1.043942 v 6.228064 m -7.117786,-7.829566 -3.5114414,1.601502 3.5114414,1.898077 3.511441,-1.898077 -3.511441,-1.601502 M 7.2839179,18.743554 10.842811,20.67722 V 17.165778 L 7.2839179,15.243976 v 3.499578 m 9.4903821,0 v -3.499578 l -3.558893,1.921802 v 3.511442 z"
       id="path2"
       sodipodi:nodetypes="cccsccssccsccscccccccccccccccc"
       style="display:inline;fill:#0091eb;fill-opacity:1;stroke-width:1.18629" />
  </g>
</svg>

<?xml version="1.0" encoding="UTF-8"?>
<svg version="1.1" viewBox="0 0 24 24" xmlns="http://www.w3.org/2000/svg"><g transform="matrix(.97405 0 0 .97405 .28299 .3804)" stroke-linecap="round" stroke-linejoin="round" stroke-width=".41065"><path d="m20.333 4.9113c.65517 0 1.1863-.53112 1.1863-1.1863s-.53112-1.1863-1.1863-1.1863c-.65518 0-1.1863.53112-1.1863 1.1863s.53112 1.1863 1.1863 1.1863m0-4.7452c1.9655 0 3.5589 1.5934 3.5589 3.5589v7.1178h-4.7452v-4.7452h-14.236v4.7452h-4.7452v-7.1178c0-1.9655 1.5934-3.5589 3.5589-3.5589h16.608" fill="#0091eb" stroke="#4cae4f"/><path d="m19.147 19.443c0 .45079-.24912.84227-.62874 1.0439l-5.8129 3.1911c-.20167.14236-.42707.21353-.67619.21353-.24912 0-.48638-.07118-.67619-.21353l-5.8129-3.1911c-.37962-.20167-.62874-.59315-.62874-1.0439v-6.2281c0-.45079.24912-.84227.62874-1.0439l5.8129-2.8946c.18981-.14236.42707-.21353.67619-.21353.24912 0 .47452.071178.67619.21353l5.8129 2.8946c.37962.20167.62874.59315.62874 1.0439v6.2281m-7.1178-7.8296-3.5114 1.6015 3.5114 1.8981 3.5114-1.8981-3.5114-1.6015m-4.7452 7.1296 3.5589 1.9337v-3.5114l-3.5589-1.9218v3.4996m9.4904 0v-3.4996l-3.5589 1.9218v3.5114z" fill="#4cae4f" stroke="#0091eb"/></g></svg>
